icons/svg/office/company.svg

<?xml version="1.0" encoding="UTF-8" standalone="no"?>
<!-- Created with Inkscape (http://www.inkscape.org/) -->

<svg
   xmlns:dc="http://purl.org/dc/elements/1.1/"
   xmlns:cc="http://creativecommons.org/ns#"
   xmlns:rdf="http://www.w3.org/1999/02/22-rdf-syntax-ns#"
   xmlns:svg="http://www.w3.org/2000/svg"
   xmlns="http://www.w3.org/2000/svg"
   xmlns:sodipodi="http://sodipodi.sourceforge.net/DTD/sodipodi-0.dtd"
   xmlns:inkscape="http://www.inkscape.org/namespaces/inkscape"
   version="1.0"
   width="580"
   height="580"
   id="svg2"
   sodipodi:version="0.32"
   inkscape:version="0.91 r"
   sodipodi:docname="company.svg"
   inkscape:output_extension="org.inkscape.output.svg.inkscape">
  <metadata
     id="metadata10">
    <rdf:RDF>
      <cc:Work
         rdf:about="">
        <dc:format>image/svg+xml</dc:format>
        <dc:type
           rdf:resource="http://purl.org/dc/dcmitype/StillImage" />
        <cc:license
           rdf:resource="http://web.resource.org/cc/PublicDomain" />
        <dc:language>en</dc:language>
        <dc:title />
      </cc:Work>
    </rdf:RDF>
  </metadata>
  <sodipodi:namedview
     inkscape:window-height="1004"
     inkscape:window-width="1920"
     inkscape:pageshadow="2"
     inkscape:pageopacity="0.0"
     guidetolerance="10.0"
     gridtolerance="10.0"
     objecttolerance="10.0"
     borderopacity="1.0"
     bordercolor="#666666"
     pagecolor="#ffffff"
     id="base"
     showgrid="false"
     inkscape:zoom="0.5"
     inkscape:cx="50.212438"
     inkscape:cy="399.56667"
     inkscape:window-x="1680"
     inkscape:window-y="0"
     inkscape:current-layer="svg2"
     inkscape:window-maximized="1" />
  <defs
     id="defs4">
    <inkscape:perspective
       sodipodi:type="inkscape:persp3d"
       inkscape:vp_x="0 : 290 : 1"
       inkscape:vp_y="0 : 1000 : 0"
       inkscape:vp_z="580 : 290 : 1"
       inkscape:persp3d-origin="290 : 193.33333 : 1"
       id="perspective12" />
  </defs>
  <g
     id="g1327">
    <path
       d="M 66.275,1.768 C 24.94,1.768 1.704,23.139 1.704,66.804 L 1.704,516.927 C 1.704,557.771 22.598,579.156 63.896,579.156 L 515.92,579.156 C 557.227,579.156 578.149,558.84 578.149,516.927 L 578.149,66.804 C 578.149,24.203 557.227,1.768 514.627,1.768 C 514.624,1.768 66.133,1.625 66.275,1.768 z"
       style="fill:#111111;stroke:#eeeeee;stroke-width:3.40799999"
       id="path1329" />
  </g>
  <path
     inkscape:connector-curvature="0"
     style="color:#000000;clip-rule:nonzero;display:inline;overflow:visible;visibility:visible;opacity:1;isolation:auto;mix-blend-mode:normal;color-interpolation:sRGB;color-interpolation-filters:linearRGB;solid-color:#000000;solid-opacity:1;fill:#ffffff;fill-opacity:1;fill-rule:nonzero;stroke:none;stroke-width:25;stroke-linecap:round;stroke-linejoin:round;stroke-miterlimit:4;stroke-dasharray:none;stroke-dashoffset:0;stroke-opacity:1;marker:none;color-rendering:auto;image-rendering:auto;shape-rendering:auto;text-rendering:auto;enable-background:accumulate"
     d="m 122.81727,237.20758 c -11.86718,0 -22.05057,7.20985 -26.409201,17.48996 l -2.263825,27.63818 0,30.33154 c 0,3.68949 0.702576,7.21208 1.971865,10.45239 l -61.931777,0 0,20.96595 0,8.38729 0,72.68684 19.392839,0 0,-72.68684 198.846719,0 0,72.68684 19.38978,0 0,-72.68684 0.002,0 0,-29.35324 -61.93178,0 c 1.26929,-3.24031 1.97187,-6.76292 1.97187,-10.45239 l 0,-30.33001 -2.26383,-27.64124 c -4.35862,-10.27731 -14.54201,-17.48843 -26.4092,-17.48843 l -60.36499,0 z m -6.03634,38.48495 6.79146,0 0,47.42712 -6.79146,0 z m 65.64622,0 6.79146,0 0,47.42712 -6.79146,0 z"
     id="path4178"
     sodipodi:nodetypes="sccsccccccccccccccsccscscccccccccc" />
  <path
     inkscape:connector-curvature="0"
     style="color:#000000;clip-rule:nonzero;display:inline;overflow:visible;visibility:visible;opacity:1;isolation:auto;mix-blend-mode:normal;color-interpolation:sRGB;color-interpolation-filters:linearRGB;solid-color:#000000;solid-opacity:1;fill:#ffffff;fill-opacity:1;fill-rule:nonzero;stroke:none;stroke-width:25;stroke-linecap:round;stroke-linejoin:round;stroke-miterlimit:4;stroke-dasharray:none;stroke-dashoffset:0;stroke-opacity:1;marker:none;color-rendering:auto;image-rendering:auto;shape-rendering:auto;text-rendering:auto;enable-background:accumulate"
     d="m 153.00053,154.84027 c -19.37853,0 -35.08844,15.7084 -35.08846,35.08693 0,19.37853 15.70993,35.08693 35.08846,35.08693 19.37854,0 35.08693,-15.7084 35.08693,-35.08693 0,-19.37853 -15.70839,-35.08693 -35.08693,-35.08693 z"
     id="path4176" />
  <path
     inkscape:connector-curvature="0"
     style="color:#000000;clip-rule:nonzero;display:inline;overflow:visible;visibility:visible;opacity:1;isolation:auto;mix-blend-mode:normal;color-interpolation:sRGB;color-interpolation-filters:linearRGB;solid-color:#000000;solid-opacity:1;fill:#ffffff;fill-opacity:1;fill-rule:nonzero;stroke:none;stroke-width:25;stroke-linecap:round;stroke-linejoin:round;stroke-miterlimit:4;stroke-dasharray:none;stroke-dashoffset:0;stroke-opacity:1;marker:none;color-rendering:auto;image-rendering:auto;shape-rendering:auto;text-rendering:auto;enable-background:accumulate"
     d="m 396.81727,237.20758 c -11.86718,0 -22.05057,7.20985 -26.4092,17.48996 l -2.26382,27.63818 0,30.33154 c 0,3.68949 0.70257,7.21208 1.97186,10.45239 l -61.93178,0 0,20.96595 0,8.38729 0,72.68684 19.39284,0 0,-72.68684 198.84672,0 0,72.68684 19.38978,0 0,-72.68684 0.002,0 0,-29.35324 -61.93178,0 c 1.26929,-3.24031 1.97187,-6.76292 1.97187,-10.45239 l 0,-30.33001 -2.26383,-27.64124 c -4.35862,-10.27731 -14.54201,-17.48843 -26.4092,-17.48843 l -60.36499,0 z m -6.03634,38.48495 6.79146,0 0,47.42712 -6.79146,0 z m 65.64622,0 6.79146,0 0,47.42712 -6.79146,0 z"
     id="path4178-5"
     sodipodi:nodetypes="sccsccccccccccccccsccscscccccccccc" />
  <path
     inkscape:connector-curvature="0"
     style="color:#000000;clip-rule:nonzero;display:inline;overflow:visible;visibility:visible;opacity:1;isolation:auto;mix-blend-mode:normal;color-interpolation:sRGB;color-interpolation-filters:linearRGB;solid-color:#000000;solid-opacity:1;fill:#ffffff;fill-opacity:1;fill-rule:nonzero;stroke:none;stroke-width:25;stroke-linecap:round;stroke-linejoin:round;stroke-miterlimit:4;stroke-dasharray:none;stroke-dashoffset:0;stroke-opacity:1;marker:none;color-rendering:auto;image-rendering:auto;shape-rendering:auto;text-rendering:auto;enable-background:accumulate"
     d="m 427.00053,154.84027 c -19.37853,0 -35.08844,15.7084 -35.08846,35.08693 0,19.37853 15.70993,35.08693 35.08846,35.08693 19.37854,0 35.08693,-15.7084 35.08693,-35.08693 0,-19.37853 -15.70839,-35.08693 -35.08693,-35.08693 z"
     id="path4176-1" />
</svg>

<svg width="580" height="580" viewBox="0 0 580 580" fill="none" xmlns="http://www.w3.org/2000/svg">
<g clip-path="url(#clip0)">
<path d="M66.2751 1.76802C24.9401 1.76802 1.7041 23.139 1.7041 66.804V516.927C1.7041 557.771 22.5981 579.156 63.8961 579.156H515.92C557.227 579.156 578.149 558.84 578.149 516.927V66.804C578.149 24.203 557.227 1.76802 514.627 1.76802C514.624 1.76802 66.1331 1.62502 66.2751 1.76802Z" fill="#111111" stroke="#EEEEEE" stroke-width="3.408"/>
<path d="M122.817 237.208C110.95 237.208 100.767 244.417 96.4081 254.697L94.1442 282.336V312.667C94.1442 316.357 94.8468 319.879 96.1161 323.12H34.1843V344.086V352.473V425.16H53.5772V352.473H252.424V425.16H271.814V352.473H271.816V323.12H209.884C211.153 319.879 211.856 316.357 211.856 312.667V282.337L209.592 254.696C205.233 244.419 195.05 237.208 183.183 237.208H122.818H122.817ZM116.781 275.692H123.572V323.12H116.781V275.692ZM182.427 275.692H189.219V323.12H182.427V275.692Z" fill="white"/>
<path d="M153.001 154.84C133.622 154.84 117.912 170.549 117.912 189.927C117.912 209.306 133.622 225.014 153.001 225.014C172.379 225.014 188.088 209.306 188.088 189.927C188.088 170.549 172.379 154.84 153.001 154.84Z" fill="white"/>
<path d="M396.817 237.208C384.95 237.208 374.767 244.417 370.408 254.697L368.144 282.336V312.667C368.144 316.357 368.847 319.879 370.116 323.12H308.184V344.086V352.473V425.16H327.577V352.473H526.424V425.16H545.814V352.473H545.816V323.12H483.884C485.153 319.879 485.856 316.357 485.856 312.667V282.337L483.592 254.696C479.233 244.419 469.05 237.208 457.183 237.208H396.818H396.817ZM390.781 275.692H397.572V323.12H390.781V275.692ZM456.427 275.692H463.219V323.12H456.427V275.692Z" fill="white"/>
<path d="M427.001 154.84C407.622 154.84 391.912 170.549 391.912 189.927C391.912 209.306 407.622 225.014 427.001 225.014C446.379 225.014 462.087 209.306 462.087 189.927C462.087 170.549 446.379 154.84 427.001 154.84Z" fill="white"/>
</g>
<defs>
<clipPath id="clip0">
<path d="M0 0H580V580H0V0Z" fill="white"/>
</clipPath>
</defs>
</svg>
